!!COM: Schubert, Franz
!!!CNT: Deutscher
!!!TXO: Deutsch
!!!LYR: Friedrich Ru2ckert
!!!OTL: "Lachen und Weinen"
!!!OPS: Op. 59
!!!ONM: No. 4
!!!ODT: 1823/
!!NB: Vocal melody only encoded.
!!NB: Original key: A major
**kern	**silbe
*staff1	*
*clefG2	*
*k[b-]	*
*M2/4	*
*MM[Etwas geschwind]	*
=9	=9
{8a	{La-
8dd	|
8cc	-chen
8cc	und
=10	=10
8cc	Wei-
8b-	|
8a	-nen
8a	zu
=11	=11
8g	jeg-
8b-	|
8a	-li-
8g	-cher
=12	=12
4f	Stun-
8c}	-de}
8r	.
=13	=13
{8a	ruht
8dd	|
8cc	hei
8cc	der
=14	=14
8cc	Lieb'
8b-	|
8a	auf
8a	so
=15	=15
8g	man-
8b-	|
8a	-cher-
8g	-lei
=16	=16
4f	Grun-
8c}	-de.}
8r	.
=17	=17
2r	.
=18	=18
{4.b-	{Mor-
8g	-gens
=19	=19
8a	lacht'
8f	|
8e	ich
8f	vor
=20	=20
8g	Lust
[4.cc	|
=21	=21
4cc]}	|}
4r	.
=22	=22
4r	.
{8cc	{und
8cc	wa-
=23	=23
2cc	-rum
=24	=24
4cc	ich
4cc	nun
=25	=25
2dd-	wei-
=26	=26
4cc}	-ne}
4r	.
=27	=27
{4.a-	{bei
8a-	des
=28	=28
4cc	A-
8cc	-ben-
8cc	-des
=29	=29
4.f	Schei-
8g	|
=30	=30
4a-}	-ne,}
4r	.
=31	=31
4r	.
{8a	{ist
8a	mir
=32	=32
8b-	selb'
8g	|
8f	nicht
8e	be-
=33	=33
4cc	-wusst,
8a	ist
8a	mir
=34	=34
8b-	selb'
8g	|
8f	nicht
8e	be-
=35	=35
4f}	-wusst.}
4r	.
=48	=48
{8a	{Wei-
8dd	|
8cc	-nen
8cc	und
=49	=49
8cc	La-
8b-	|
8a	-chen
8a	zu
=50	=50
8g	jeg-
8b-	|
8a	-li-
8g	-cher
=51	=51
4f	Stun-
8c}	-de}
8r	.
=52	=52
{8a	{ruht
8dd	|
8cc	bei
8cc	der
=53	=53
8cc	Lieb'
8b-	|
8a	auf
8a	so
=54	=54
8g	man-
8b-	|
8a	-cher-
8g	-lei
=55	=55
4f	Grun-
8c}	-de.}
8r	.
=56	=56
2r	.
=57	=57
{4.b-	{A-
8g	-bends
=58	=58
8a-	weint'
8f	|
8e	ich
8f	vor
=59	=59
8g	Schmerz;
[4.cc	|
=60	=60
4cc]}	|}
4r	.
=61	=61
4r	.
{8cc	{und
8cc	wa-
=62	=62
4cc	-rum
8a	du
8f	er-
=63	=63
8f	-wa-
8a	-chen
8cc	kannst
8dd	am
=64	=64
4ee-	Mor-
8a	-gen
8a	mit
=65	=65
ddq	La-
4cc	|
4b-}	-chen,}
=66	=66
2r	.
=67	=67
8.r	.
{16g	{muss
8g	ich
8a	dich
=68	=68
8b-	fra-
8g	|
8f	-gen,
8e	o
=69	=69
8.cc	Herz,
16a	muss
8g	ich
8a	dich
=70	=70
8b-	fra-
8g	|
8f	-gen,
8e	o
=71	=71
4f}	Herz.}
4r	.
==	==
*-	*-
